X:53
M:6/8
L:1/8
K:A
|: e | eEe edc | d[B,B][B,B] [B,2B2]c | dBd dcB | c[A,A][A,A] [A,2A2]f |
fFf fga | gfe a2d | cec dBG | A3 [A,2A2] :|

